X:1
T:Elmhurst, 88.86
T:Elmhurst, 88.86
T:Edwin Drewett, 1887
T:Public Domain Courtesy of the Cyber Hymnal™
C:Edwin Drewett, 1887
Z:Public Domain
Z:Courtesy of the Cyber Hymnal™
%%score ( 1 2 ) ( 3 4 )
L:1/8
Q:1/4=110
M:4/4
K:Eb
V:1 treble 
V:2 treble 
V:3 bass 
V:4 bass 
V:1
 [EG]2 | [EG]3 [EG] [EA]2 [EG]2 | [DB]2 [DF]2 [EG]2 E2 | [Ec]3 [EB] [DA]2 [EG]2 | %4
 [EG]2 [EF]2 [DF]2 [DF]2 | [EG]3 [DA] [EB]2 [Ge]2 | d3 z [GB]2 [GB]2 | [FA]2 [CF]2 C2 [B,D]2 | %8
 [B,E]6 |] %9
V:2
 x2 | x8 | x6 E2 | x8 | x8 | x8 | ^F2 (F2 c) x3 | x4 C2 x2 | x6 |] %9
V:3
 [E,B,]2 | [E,B,]3 [E,B,] [E,C]2 [E,B,]2 | [B,,B,]2 [B,,A,]2 [E,G,]2 [G,B,]2 | %3
 A,3 [G,B,] [F,B,]2 [E,B,]2 | [C,B,]2 [C,=A,]2 [B,,B,]2 [B,,B,]2 | [E,B,]3 [F,B,] [G,B,]2 [C,C]2 | %6
 [D,=A,]2 [D,D]2 [G,D]2 [=E,_D]2 | [F,C]2 [A,,A,]2 [B,,A,]2 (B,A,) | [E,G,]6 |] %9
V:4
 x2 | x8 | x8 | A,3 x5 | x8 | x8 | x8 | x6 B,,2 | x6 |] %9

